configs/network-logos/redstone-light.svg

<svg width="98" height="24" viewBox="0 0 98 24" fill="none" xmlns="http://www.w3.org/2000/svg">
<g clip-path="url(#clip0_11335_6268)">
<mask id="mask0_11335_6268" style="mask-type:luminance" maskUnits="userSpaceOnUse" x="0" y="0" width="24" height="24">
<path d="M24 0H0V24H24V0Z" fill="white"/>
</mask>
<g mask="url(#mask0_11335_6268)">
<path opacity="0.75" d="M9 9H6V6H9V9Z" fill="#F34242"/>
<path d="M9 12H6V9H9V12Z" fill="#F34242"/>
<path d="M9 15H6V12H9V15Z" fill="#F34242"/>
<path opacity="0.75" d="M9 18H6V15H9V18Z" fill="#F34242"/>
<path opacity="0.75" d="M18 9H15V6H18V9Z" fill="#F34242"/>
<path d="M18 12H15V9H18V12Z" fill="#F34242"/>
<path d="M18 15H15V12H18V15Z" fill="#F34242"/>
<path opacity="0.75" d="M18 18H15V15H18V18Z" fill="#F34242"/>
<path d="M12 18H9V15H12V18Z" fill="#F34242"/>
<path d="M15 18H12V15H15V18Z" fill="#F34242"/>
<path d="M12 9H9V6H12V9Z" fill="#F34242"/>
<path d="M15 9H12V6H15V9Z" fill="#F34242"/>
<path d="M12 0H9V3H12V0Z" fill="#F34242" fill-opacity="0.25"/>
<path d="M15 21H12V18H15V21Z" fill="#F34242" fill-opacity="0.75"/>
<path d="M21 12H18V15H21V12Z" fill="#F34242" fill-opacity="0.75"/>
<path d="M6 15H3V12H6V15Z" fill="#F34242" fill-opacity="0.75"/>
<path d="M15 3H12V6H15V3Z" fill="#F34242" fill-opacity="0.75"/>
<path d="M15 0H12V3H15V0Z" fill="#F34242" fill-opacity="0.25"/>
<path d="M12 24H9V21H12V24Z" fill="#F34242" fill-opacity="0.25"/>
<path d="M15 24H12V21H15V24Z" fill="#F34242" fill-opacity="0.25"/>
<path d="M24 9H21V12H24V9Z" fill="#F34242" fill-opacity="0.25"/>
<path d="M24 12H21V15H24V12Z" fill="#F34242" fill-opacity="0.25"/>
<path d="M3 15H0V12H3V15Z" fill="#F34242" fill-opacity="0.25"/>
<path d="M3 12H0V9H3V12Z" fill="#F34242" fill-opacity="0.25"/>
<path d="M12 3H9V6H12V3Z" fill="#F34242" fill-opacity="0.75"/>
<path d="M12 21H9V18H12V21Z" fill="#F34242" fill-opacity="0.75"/>
<path d="M21 9H18V12H21V9Z" fill="#F34242" fill-opacity="0.75"/>
<path d="M6 12H3V9H6V12Z" fill="#F34242" fill-opacity="0.75"/>
</g>
<path d="M39.3404 17.3878H37.8049L36.0321 13.4792H34.5943V17.3878H33.1984V7.61633H36.8278C38.2237 7.61633 39.3404 8.73307 39.3404 10.129V10.9665C39.3404 12.1251 38.5727 13.0883 37.5118 13.3815L39.3404 17.3878ZM34.5943 12.0833H36.8278C37.4559 12.0833 37.9445 11.5947 37.9445 10.9665V10.129C37.9445 9.50082 37.4559 9.01225 36.8278 9.01225H34.5943V12.0833ZM47.7105 7.61633V9.01225H42.9644V11.5668H47.1522V12.9627H42.9644V15.9918H47.7105V17.3878H41.5685V7.61633H47.7105ZM53.5678 7.61633C54.9497 7.61633 56.0804 8.73307 56.0804 10.129V14.8611C56.0804 16.2431 54.9497 17.3878 53.5678 17.3878H49.9384V7.61633H53.5678ZM51.3343 15.9779H53.5678C54.182 15.9779 54.6845 15.4754 54.6845 14.8611V10.129C54.6845 9.51478 54.1959 9.01225 53.5678 9.01225H51.3343V15.9779ZM58.3085 14.233H59.7044V14.7914C59.7044 15.4474 60.2488 15.9918 60.9049 15.9918H61.8402C62.5521 15.9918 63.0546 15.5452 63.0546 14.9309C63.0546 13.0046 58.4481 12.5858 58.4481 9.93356C58.4481 8.56556 59.5229 7.61633 61.0445 7.61633H61.7006C63.1384 7.61633 64.3109 8.77495 64.3109 10.2127V10.6315H62.915V10.2127C62.915 9.5427 62.3706 9.01225 61.7006 9.01225H61.0445C60.2907 9.01225 59.844 9.36123 59.844 9.93356C59.844 11.4132 64.4505 11.9856 64.4505 14.9309C64.4505 16.3269 63.3198 17.3878 61.8402 17.3878H60.9049C59.4671 17.3878 58.3085 16.2292 58.3085 14.7914V14.233ZM66.6786 7.61633H72.8207V9.01225H70.4476V17.3878H69.0517V9.01225H66.6786V7.61633ZM78.6781 15.9779C79.2923 15.9779 79.7949 15.4754 79.7949 14.8611V10.129C79.7949 9.50082 79.3063 9.01225 78.6781 9.01225H77.5614C76.9332 9.01225 76.4447 9.51478 76.4447 10.129V14.8611C76.4447 15.4754 76.9472 15.9779 77.5614 15.9779H78.6781ZM75.0487 14.8611V10.129C75.0487 8.73307 76.1794 7.61633 77.5614 7.61633H78.6781C80.074 7.61633 81.1908 8.73307 81.1908 10.129V14.8611C81.1908 16.2431 80.074 17.3878 78.6781 17.3878H77.5614C76.1794 17.3878 75.0487 16.2431 75.0487 14.8611ZM88.1647 7.61633H89.5607V17.3878H87.5366L84.8145 9.96148V17.3878H83.4186V7.61633H85.4427L88.1647 15.0426V7.61633ZM97.9308 7.61633V9.01225H93.1847V11.5668H97.3724V12.9627H93.1847V15.9918H97.9308V17.3878H91.7887V7.61633H97.9308Z" fill="#101112"/>
</g>
<defs>
<clipPath id="clip0_11335_6268">
<rect width="98" height="24" fill="white"/>
</clipPath>
</defs>
</svg>

<svg xmlns="http://www.w3.org/2000/svg" fill="none" viewBox="0 0 98 24">
  <g clip-path="url(#redstone-light_svg__a)">
    <mask id="redstone-light_svg__b" width="24" height="24" x="0" y="0" maskUnits="userSpaceOnUse" style="mask-type:luminance">
      <path fill="#fff" d="M24 0H0v24h24V0Z"/>
    </mask>
    <g fill="#F34242" mask="url(#redstone-light_svg__b)">
      <path d="M9 9H6V6h3v3Z" opacity=".75"/>
      <path d="M9 12H6V9h3v3Zm0 3H6v-3h3v3Z"/>
      <path d="M9 18H6v-3h3v3Zm9-9h-3V6h3v3Z" opacity=".75"/>
      <path d="M18 12h-3V9h3v3Zm0 3h-3v-3h3v3Z"/>
      <path d="M18 18h-3v-3h3v3Z" opacity=".75"/>
      <path d="M12 18H9v-3h3v3Zm3 0h-3v-3h3v3Zm-3-9H9V6h3v3Zm3 0h-3V6h3v3Z"/>
      <path fill-opacity=".25" d="M12 0H9v3h3V0Z"/>
      <path fill-opacity=".75" d="M15 21h-3v-3h3v3Zm6-9h-3v3h3v-3ZM6 15H3v-3h3v3Zm9-12h-3v3h3V3Z"/>
      <path fill-opacity=".25" d="M15 0h-3v3h3V0Zm-3 24H9v-3h3v3Zm3 0h-3v-3h3v3Zm9-15h-3v3h3V9Zm0 3h-3v3h3v-3ZM3 15H0v-3h3v3Zm0-3H0V9h3v3Z"/>
      <path fill-opacity=".75" d="M12 3H9v3h3V3Zm0 18H9v-3h3v3Zm9-12h-3v3h3V9ZM6 12H3V9h3v3Z"/>
    </g>
    <path fill="#101112" d="M39.34 17.388h-1.535l-1.773-3.909h-1.438v3.909h-1.396V7.616h3.63a2.502 2.502 0 0 1 2.512 2.513v.838a2.492 2.492 0 0 1-1.828 2.415l1.828 4.006Zm-4.746-5.305h2.234c.628 0 1.116-.488 1.116-1.117v-.837c0-.628-.488-1.117-1.116-1.117h-2.234v3.071Zm13.117-4.467v1.396h-4.747v2.555h4.188v1.396h-4.188v3.029h4.747v1.396h-6.142V7.616h6.142Zm5.857 0a2.511 2.511 0 0 1 2.512 2.513v4.732c0 1.382-1.13 2.527-2.512 2.527h-3.63V7.616h3.63Zm-2.234 8.362h2.234a1.12 1.12 0 0 0 1.117-1.117V10.13c0-.614-.49-1.117-1.117-1.117h-2.234v6.966Zm6.974-1.745h1.396v.558c0 .656.545 1.2 1.2 1.2h.936c.712 0 1.215-.446 1.215-1.06 0-1.926-4.607-2.345-4.607-4.997 0-1.368 1.075-2.318 2.596-2.318h.657a2.603 2.603 0 0 1 2.61 2.597v.419h-1.396v-.42c0-.67-.544-1.2-1.214-1.2h-.657c-.753 0-1.2.35-1.2.922 0 1.48 4.607 2.052 4.607 4.997 0 1.396-1.131 2.457-2.61 2.457h-.936a2.591 2.591 0 0 1-2.596-2.597v-.558Zm8.37-6.617h6.143v1.396h-2.373v8.376h-1.396V9.012h-2.373V7.616Zm12 8.362a1.12 1.12 0 0 0 1.117-1.117V10.13c0-.628-.489-1.117-1.117-1.117h-1.117a1.11 1.11 0 0 0-1.116 1.117v4.732a1.12 1.12 0 0 0 1.116 1.117h1.117Zm-3.63-1.117V10.13a2.511 2.511 0 0 1 2.513-2.513h1.117a2.502 2.502 0 0 1 2.513 2.513v4.732a2.523 2.523 0 0 1-2.513 2.527h-1.117c-1.382 0-2.512-1.145-2.512-2.527Zm13.117-7.245h1.396v9.772h-2.024L84.814 9.96v7.427H83.42V7.616h2.024l2.722 7.427V7.616Zm9.766 0v1.396h-4.746v2.555h4.187v1.396h-4.187v3.029h4.746v1.396h-6.142V7.616h6.142Z"/>
  </g>
  <defs>
    <clipPath id="redstone-light_svg__a">
      <path fill="#fff" d="M0 0h98v24H0z"/>
    </clipPath>
  </defs>
</svg>
